libs/ui/packages/crypto-icons/src/svg/TON.svg

<svg width="56" height="56" viewBox="0 0 56 56" fill="none">
<path d="M37.5603 15.6277H18.4386C14.9228 15.6277 12.6944 19.4202 14.4632 22.4861L26.2644 42.9409C27.0345 44.2765 28.9644 44.2765 29.7345 42.9409L41.5381 22.4861C43.3045 19.4251 41.0761 15.6277 37.5627 15.6277H37.5603ZM26.2548 36.8068L23.6847 31.8327L17.4833 20.7414C17.0742 20.0315 17.5795 19.1218 18.4362 19.1218H26.2524V36.8092L26.2548 36.8068ZM38.5108 20.739L32.3118 31.8351L29.7417 36.8068V19.1194H37.5579C38.4146 19.1194 38.9199 20.0291 38.5108 20.739Z" fill="white"/>
</svg>

<svg width="56" height="56" viewBox="0 0 56 56" fill="none"><path fill="#fff" d="M37.56 15.628H18.44c-3.516 0-5.745 3.792-3.976 6.858l11.801 20.455c.77 1.335 2.7 1.335 3.47 0l11.804-20.455c1.767-3.06-.462-6.858-3.975-6.858zM26.255 36.807l-2.57-4.974-6.202-11.092c-.409-.71.096-1.62.953-1.62h7.816V36.81zM38.51 20.739l-6.2 11.096-2.57 4.972V19.119h7.817c.857 0 1.362.91.953 1.62"/></svg>
